X:1
T:Cacina
M:6/8
L:1/8
S:McGlashan - Collection of Scots Measures (c. 1780)
Z:AK/Fiddler's Companion
K:G
|: B2A B2A | G2G GAB | c2B c2B | A2A A2B | c2c cde | edc Bcd | dcB AGA | G2G G3 :|
|: d2d dBG | e2e e3  | c2c cAF | d2d d3  | G2D B2G | d2B g2d | edc BAG | AFD CB,A, :|
